X:1
T:Title
%%score { ( 1 3 ) | ( 2 4 ) }
L:1/8
Q:1/4=100
M:4/4
K:Bb
V:1 treble nm="Grand Piano"
V:3 treble 
V:2 bass 
V:4 bass 
V:1
 [DF]2 [DF]>[DF] [DF]2 [DF]2 | [DB]2 [Fd][Ec] [DB]2 [DF]2 | [EG]2 [EG]>[FA] [GB]2 [FA][EG] | %3
w: Robert~Lowry * * * *|||
 [EG]2 [DF]2 [DF]4 | F2 E>E E2 G2 | [EG]2 [DF]>[DF] [DF]2 [DFB]2 | %6
w: |||
 [FA]2 [FA]>[GB] [Ac][GB][FA][=EG] | F8 | [DB]2 [DF]>[DF] [DF]2 z2 | [GB]2 G>G G2 z2 | %10
w: ||||
 A2 A>B c2 dc | [B,DB]2 [B,DF]2 [F,B,D]2 [B,DF]2 | G2 G>B cB[FA][EG] | [DF]2 [DB]2 [Fd]4 | %14
w: ||||
 c2 c2 B2 A2 | [DB]8 |] %16
w: ||
V:2
 [B,,B,]2 [B,,B,]>[B,,B,] [B,,B,]2 [B,,B,]2 | [B,,F,]2 [B,,B,]2 [B,,B,]2 [B,,B,]2 | %2
 [E,B,]2 [E,B,]>[E,B,] [E,B,]2 [E,B,]2 | [B,,B,]2 [B,,B,]2 [B,,B,]4 | %4
 [F,A,C]2 [F,A,C]>[F,A,C] [F,A,C]2 [F,A,E]2 | [B,,B,]2 [B,,B,]>[B,,B,] [B,,B,]2 B,,2 | %6
 [C,C]2 [C,C]>[C,C] [C,C][C,C][C,C][C,B,] | [F,A,]8 | [B,,B,]2 [B,,B,]>[B,,B,] [B,,B,]2 z2 | %9
 [E,B,]2 [E,B,E]>[E,B,E] [E,B,E]2 z2 | [F,C]2 [F,C]>[F,B,D] [F,A,E]2 FE | B,,2 B,,2 B,,2 B,,2 | %12
 [E,B,E]2 [E,B,E]>[E,G,E] [E,G,E][E,G,E][E,B,][E,B,] | [B,,B,]2 [B,,F,]2 [B,,B,]4 | %14
 [E,G,E]2 [E,G,E]2 [F,D]2 [F,C]2 | [B,,F,]8 |] %16
V:3
 x8 | x8 | x8 | x8 | x8 | x8 | x8 | z2 E2 z4 | x8 | x8 | x8 | x8 | x8 | x8 | x8 | x8 |] %16
V:4
 x8 | x8 | x8 | x8 | x8 | x8 | x8 | x8 | x8 | x8 | z4 z2 [F,A,]2 | x8 | x8 | x8 | x8 | x8 |] %16

